floristman/img/sprite/facebook.svg

<svg width="50" height="50" viewBox="0 0 50 50" fill="none" xmlns="http://www.w3.org/2000/svg">
<path d="M9 4C6.25 4 4 6.25 4 9V41C4 43.75 6.25 46 9 46H25.832C25.9394 46.0176 26.0508 46.0176 26.1582 46H31.832C31.9394 46.0176 32.0508 46.0176 32.1582 46H41C43.75 46 46 43.75 46 41V9C46 6.25 43.75 4 41 4H9ZM9 6H41C42.668 6 44 7.33203 44 9V41C44 42.668 42.668 44 41 44H33V30H36.8203L38.2207 23H33V21C33 20.4434 33.0527 20.3984 33.2402 20.2773C33.4277 20.1562 34.0058 20 35 20H38V14.3691L37.4297 14.0977C37.4297 14.0977 35.1328 13 32 13C29.75 13 27.9023 13.8965 26.7187 15.375C25.5351 16.8535 25 18.834 25 21V23H22V30H25V44H9C7.33203 44 6 42.668 6 41V9C6 7.33203 7.33203 6 9 6ZM32 15C34.0781 15 35.3867 15.459 36 15.7012V18H35C33.8496 18 32.9277 18.0957 32.1504 18.5996C31.373 19.1035 31 20.0605 31 21V25H35.7793L35.1797 28H31V44H27V28H24V25H27V21C27 19.166 27.4648 17.6465 28.2812 16.625C29.0976 15.6035 30.25 15 32 15Z" fill="#EB8671"/>
</svg>

<svg width="50" height="50" fill="none" xmlns="http://www.w3.org/2000/svg"><path d="M9 4C6.25 4 4 6.25 4 9v32c0 2.75 2.25 5 5 5h16.832c.107.018.219.018.326 0h5.674c.107.018.219.018.326 0H41c2.75 0 5-2.25 5-5V9c0-2.75-2.25-5-5-5H9zm0 2h32c1.668 0 3 1.332 3 3v32c0 1.668-1.332 3-3 3h-8V30h3.82l1.4-7H33v-2c0-.557.053-.602.24-.723.188-.12.766-.277 1.76-.277h3v-5.63l-.57-.272S35.133 13 32 13c-2.25 0-4.098.896-5.281 2.375C25.535 16.854 25 18.834 25 21v2h-3v7h3v14H9c-1.668 0-3-1.332-3-3V9c0-1.668 1.332-3 3-3zm23 9c2.078 0 3.387.459 4 .701V18h-1c-1.15 0-2.072.096-2.85.6-.777.503-1.15 1.46-1.15 2.4v4h4.78l-.6 3H31v16h-4V28h-3v-3h3v-4c0-1.834.465-3.354 1.281-4.375C29.098 15.604 30.25 15 32 15z" fill="#EB8671"/></svg>
